X:53
T:Duke of Hamiltonâ€™s Reel,The. JBi.52
M:C
L:1/8
Q:1/2=70
S:James Biggins MS, Leeds, 1779.
R:.Strathspey
O:England
A:Yorkshire
Z:vmp.Nick Barber & Chris Partington
K:G
G>Bd>BA2e2|G>B de/f/ g>dB>G|!
c>eB>g A>Ae2|d/c/B/A/ GBd2e2:|!
|:d>Bg>B A>Ae2|d>Bg>B d>eg>a|!
b/a/g/f/ g>B A>Ae2|de/f/ g>Bd2e2:|

